u/stations/toyo/symbols/TR/TR02.svg

<?xml version="1.0" encoding="UTF-8"?>
<svg xmlns="http://www.w3.org/2000/svg" xmlns:xlink="http://www.w3.org/1999/xlink" width="75" height="75" viewBox="0 0 75 75">
<defs>
<clipPath id="clip-0">
<path clip-rule="nonzero" d="M 2 1 L 19 1 L 19 22.75 L 2 22.75 Z M 2 1 "/>
</clipPath>
<clipPath id="clip-1">
<path clip-rule="nonzero" d="M 20 1 L 37 1 L 37 22.75 L 20 22.75 Z M 20 1 "/>
</clipPath>
<clipPath id="clip-2">
<rect x="0" y="0" width="39" height="23"/>
</clipPath>
<g id="source-6" clip-path="url(#clip-2)">
<g clip-path="url(#clip-0)">
<path fill-rule="nonzero" fill="rgb(0%, 0%, 0%)" fill-opacity="1" d="M 8.53125 4.449219 L 2.757812 4.449219 L 2.757812 1.089844 L 18.632812 1.089844 L 18.632812 4.449219 L 12.765625 4.449219 L 12.765625 22.324219 L 8.53125 22.324219 Z M 8.53125 4.449219 "/>
</g>
<g clip-path="url(#clip-1)">
<path fill-rule="nonzero" fill="rgb(0%, 0%, 0%)" fill-opacity="1" d="M 20.847656 1.089844 C 25.273438 1.089844 25.273438 1.089844 25.273438 1.089844 C 29.699219 1.089844 34.992188 0.992188 34.992188 6.917969 C 34.992188 9.386719 33.355469 11.363281 30.757812 11.757812 C 31.914062 11.855469 32.585938 13.042969 32.972656 13.929688 C 36.242188 22.324219 36.242188 22.324219 36.242188 22.324219 C 31.625 22.324219 31.625 22.324219 31.625 22.324219 C 29.21875 15.609375 29.21875 15.609375 29.21875 15.609375 C 28.546875 14.128906 28.0625 13.4375 26.332031 13.4375 C 24.984375 13.4375 24.984375 13.4375 24.984375 13.4375 C 24.984375 22.324219 24.984375 22.324219 24.984375 22.324219 C 20.847656 22.324219 20.847656 22.324219 20.847656 22.324219 Z M 24.984375 10.078125 C 26.332031 10.078125 26.332031 10.078125 26.332031 10.078125 C 28.351562 10.078125 30.660156 9.78125 30.660156 7.214844 C 30.660156 4.746094 28.351562 4.449219 26.332031 4.449219 C 24.984375 4.449219 24.984375 4.449219 24.984375 4.449219 Z M 24.984375 10.078125 "/>
</g>
</g>
<clipPath id="clip-3">
<path clip-rule="nonzero" d="M 2 0.847656 L 20 0.847656 L 20 26.851562 L 2 26.851562 Z M 2 0.847656 "/>
</clipPath>
<clipPath id="clip-4">
<path clip-rule="nonzero" d="M 21 0.847656 L 39 0.847656 L 39 26.851562 L 21 26.851562 Z M 21 0.847656 "/>
</clipPath>
<clipPath id="clip-5">
<rect x="0" y="0" width="41" height="27"/>
</clipPath>
<g id="source-9" clip-path="url(#clip-5)">
<g clip-path="url(#clip-3)">
<path fill-rule="nonzero" fill="rgb(0%, 0%, 0%)" fill-opacity="1" d="M 2.386719 13.921875 C 2.386719 7.621094 4.296875 0.847656 11.097656 0.847656 C 18.445312 0.847656 19.886719 8.085938 19.886719 13.921875 C 19.886719 19.757812 18.375 26.851562 11.097656 26.851562 C 3.359375 26.851562 2.386719 19.179688 2.386719 13.921875 M 14.847656 13.921875 C 14.847656 10.679688 14.847656 4.59375 11.097656 4.59375 C 7.429688 4.59375 7.429688 10.679688 7.429688 13.921875 C 7.429688 17.09375 7.390625 23.105469 11.097656 23.105469 C 14.882812 23.105469 14.847656 17.09375 14.847656 13.921875 Z M 14.847656 13.921875 "/>
</g>
<g clip-path="url(#clip-4)">
<path fill-rule="nonzero" fill="rgb(0%, 0%, 0%)" fill-opacity="1" d="M 21.902344 26.417969 L 21.902344 22.207031 C 24.242188 19.933594 32.777344 12.804688 32.777344 8.195312 C 32.777344 5.890625 30.722656 4.808594 28.671875 4.808594 C 26.546875 4.808594 24.53125 5.746094 22.875 6.828125 L 22.476562 2.652344 C 24.746094 1.496094 27.375 0.847656 29.929688 0.847656 C 34.722656 0.847656 37.820312 3.261719 37.820312 8.195312 C 37.820312 13.523438 32.453125 18.421875 28.347656 22.453125 L 38.613281 22.453125 L 38.613281 26.417969 L 21.902344 26.417969 "/>
</g>
</g>
<clipPath id="clip-6">
<rect x="0" y="0" width="75" height="75"/>
</clipPath>
<g id="source-11" clip-path="url(#clip-6)">
<path fill-rule="nonzero" fill="rgb(55.291748%, 80.39093%, 41.96167%)" fill-opacity="1" d="M 75 37.5 C 75 16.789062 58.210938 0 37.5 0 C 16.789062 0 0 16.789062 0 37.5 C 0 58.210938 16.789062 75 37.5 75 C 58.210938 75 75 58.210938 75 37.5 Z M 75 37.5 "/>
<path fill-rule="nonzero" fill="rgb(100%, 100%, 100%)" fill-opacity="1" d="M 70.601562 37.5 C 70.601562 19.21875 55.78125 4.398438 37.5 4.398438 C 19.21875 4.398438 4.402344 19.21875 4.402344 37.5 C 4.402344 55.78125 19.21875 70.601562 37.5 70.601562 C 55.78125 70.601562 70.601562 55.78125 70.601562 37.5 Z M 70.601562 37.5 "/>
<use xlink:href="#source-6" transform="matrix(1, 0, 0, 1, 18, 10)"/>
<use xlink:href="#source-9" transform="matrix(1, 0, 0, 1, 17, 38)"/>
</g>
</defs>
<use xlink:href="#source-11"/>
</svg>

<svg xmlns="http://www.w3.org/2000/svg" xmlns:xlink="http://www.w3.org/1999/xlink" width="75" height="75"><defs><clipPath id="b"><path d="M2 1h17v21.75H2Zm0 0"/></clipPath><clipPath id="c"><path d="M20 1h17v21.75H20Zm0 0"/></clipPath><clipPath id="a"><path d="M0 0h39v23H0z"/></clipPath><clipPath id="e"><path d="M2 .848h18v26.004H2Zm0 0"/></clipPath><clipPath id="f"><path d="M21 .848h18v26.004H21Zm0 0"/></clipPath><clipPath id="d"><path d="M0 0h41v27H0z"/></clipPath><clipPath id="g"><path d="M0 0h75v75H0z"/></clipPath><g id="h" clip-path="url(#a)"><g clip-path="url(#b)"><path d="M8.531 4.45H2.758V1.09h15.875v3.36h-5.867v17.874H8.53Zm0 0"/></g><g clip-path="url(#c)"><path d="M20.848 1.09h4.425c4.426 0 9.72-.098 9.72 5.828 0 2.469-1.638 4.445-4.235 4.84 1.156.097 1.828 1.285 2.215 2.172l3.27 8.394h-4.618l-2.406-6.715c-.672-1.48-1.157-2.171-2.887-2.171h-1.348v8.886h-4.136Zm4.136 8.988h1.348c2.02 0 4.328-.297 4.328-2.863 0-2.469-2.308-2.766-4.328-2.766h-1.348Zm0 0"/></g></g><g id="i" clip-path="url(#d)"><g clip-path="url(#e)"><path d="M2.387 13.922c0-6.3 1.91-13.074 8.71-13.074 7.348 0 8.79 7.238 8.79 13.074 0 5.836-1.512 12.93-8.79 12.93-7.738 0-8.71-7.672-8.71-12.93m12.46 0c0-3.242 0-9.328-3.75-9.328-3.667 0-3.667 6.086-3.667 9.328 0 3.172-.04 9.183 3.668 9.183 3.785 0 3.75-6.011 3.75-9.183Zm0 0"/></g><g clip-path="url(#f)"><path d="M21.902 26.418v-4.211c2.34-2.273 10.875-9.402 10.875-14.012 0-2.304-2.054-3.386-4.105-3.386-2.125 0-4.14.937-5.797 2.02l-.398-4.177C24.747 1.496 27.375.848 29.93.848c4.793 0 7.89 2.414 7.89 7.347 0 5.328-5.367 10.227-9.472 14.258h10.265v3.965h-16.71"/></g></g><g id="j" clip-path="url(#g)"><path fill="#8DCD6B" d="M75 37.5C75 16.79 58.21 0 37.5 0S0 16.79 0 37.5 16.79 75 37.5 75 75 58.21 75 37.5Zm0 0"/><path fill="#FFF" d="M70.602 37.5c0-18.281-14.82-33.102-33.102-33.102-18.281 0-33.098 14.82-33.098 33.102 0 18.281 14.817 33.102 33.098 33.102S70.602 55.782 70.602 37.5Zm0 0"/><use xlink:href="#h" transform="translate(18 10)"/><use xlink:href="#i" transform="translate(17 38)"/></g></defs><use xlink:href="#j"/></svg>
